X: 33991
T: Reel à Kim
R: reel
M: 4/4
K: Dmajor
F2G2|:ABAF D2F2|A3d c2d2|B2GB D2G2|B3B A2B2|
c2AA E2A2|c3c B2c2|d2c2 B2A2|F3E F2G2|
ABAF D2F2|A3d c2d2|B2GB D2G2|B3B A2B2|
c2AA E2A2|c3c B2c2|d2AA BAFA|1 d3A F2G2:|2 d3d e2f2||
|:g3a gdBG|DGBd c2B2|AAfA dfAd|fdfa g2f2|
e2ce acea|caeg f2e2|f2df AdfA|dfdf e2f2|
g3a gdBG|DGBd c2B2|AAfA dfAd|fdfa g2f2|
e2ce acea|caeg f2e2|d2AA BAFA|1 d3d e2f2:|2 d3A F2G2||

